icons/themes/default/sort-descending.svg

<svg viewBox="0 0 16 16" fill="none" xmlns="http://www.w3.org/2000/svg">
<path fill-rule="evenodd" clip-rule="evenodd" d="M5.17007 1.77934C5.17007 1.55222 5.01699 1.35363 4.79735 1.29581C4.57784 1.23803 4.34696 1.33537 4.23506 1.53283L4.23524 1.53252L4.23556 1.53196L4.23605 1.53109L4.23647 1.53038C4.23649 1.53034 4.23599 1.53119 4.23499 1.53287C4.23297 1.53622 4.22891 1.54286 4.2228 1.55239C4.21057 1.57147 4.19025 1.60188 4.16179 1.6404C4.10461 1.71782 4.01624 1.82573 3.89649 1.93977C3.65607 2.16874 3.30278 2.41012 2.82917 2.49767C2.55763 2.54788 2.3782 2.8087 2.4284 3.08024C2.4786 3.35178 2.73943 3.53121 3.01097 3.48101C3.47977 3.39434 3.86519 3.20868 4.17007 3.00073V6.66934C4.17007 6.94549 4.39393 7.16934 4.67007 7.16934C4.94621 7.16934 5.17007 6.94549 5.17007 6.66934V1.77934ZM11.7901 2.60934C12.0662 2.60934 12.2901 2.8332 12.2901 3.10934V11.2522L13.8864 9.65578C14.0817 9.46052 14.3983 9.46052 14.5935 9.65578C14.7888 9.85105 14.7888 10.1676 14.5935 10.3629L12.1489 12.8075C12.1268 12.8304 12.1024 12.8511 12.0762 12.8694C12.0609 12.8802 12.0449 12.89 12.0284 12.899C11.9576 12.9375 11.8764 12.9593 11.7901 12.9593C11.7309 12.9593 11.6741 12.9491 11.6214 12.9302C11.5539 12.9061 11.4905 12.867 11.4364 12.8129L8.98644 10.3629C8.79118 10.1676 8.79118 9.85105 8.98644 9.65578C9.1817 9.46052 9.49828 9.46052 9.69355 9.65578L11.2901 11.2523V3.10934C11.2901 2.8332 11.5139 2.60934 11.7901 2.60934ZM3.23243 8.96169C3.5925 8.60162 4.08086 8.39934 4.59007 8.39934C5.09929 8.39934 5.58765 8.60162 5.94772 8.96169C6.30414 9.31811 6.50595 9.80023 6.51001 10.3039C6.53222 10.6793 6.55665 11.8783 5.73245 12.9961L5.73158 12.9973C5.20493 13.7071 4.56596 14.071 4.21781 14.2394C3.96924 14.3597 3.67022 14.2557 3.54995 14.0071C3.42967 13.7586 3.53367 13.4595 3.78225 13.3393C4.054 13.2078 4.53478 12.9318 4.92806 12.402C4.98324 12.3271 5.03335 12.2517 5.07886 12.1761C4.92066 12.2177 4.75648 12.2393 4.59007 12.2393C4.08086 12.2393 3.5925 12.0371 3.23243 11.677C2.87236 11.3169 2.67007 10.8286 2.67007 10.3193C2.67007 9.81012 2.87236 9.32176 3.23243 8.96169ZM5.51005 10.3127C5.51 10.3169 5.51 10.3211 5.51005 10.3253C5.50848 10.5672 5.41173 10.7988 5.24061 10.9699C5.06808 11.1424 4.83407 11.2393 4.59007 11.2393C4.34607 11.2393 4.11207 11.1424 3.93953 10.9699C3.767 10.7973 3.67007 10.5633 3.67007 10.3193C3.67007 10.0753 3.767 9.84133 3.93953 9.6688C4.11207 9.49627 4.34607 9.39934 4.59007 9.39934C4.83407 9.39934 5.06808 9.49627 5.24061 9.6688C5.41159 9.83978 5.50832 10.0711 5.51005 10.3127Z" fill="currentColor"/>
</svg>

<svg xmlns="http://www.w3.org/2000/svg" fill="none" viewBox="0 0 16 16">
  <path fill="currentColor" fill-rule="evenodd" d="M5.17 1.78a.5.5 0 0 0-.935-.247v-.001h.001V1.53l-.001.003a2.331 2.331 0 0 1-.338.407 2.1 2.1 0 0 1-1.068.558.5.5 0 0 0 .182.983 3.023 3.023 0 0 0 1.16-.48v3.668a.5.5 0 1 0 1 0V1.78Zm6.62.83a.5.5 0 0 1 .5.5v8.142l1.596-1.596a.5.5 0 1 1 .708.707l-2.445 2.444a.494.494 0 0 1-.359.152.499.499 0 0 1-.354-.146l-2.45-2.45a.5.5 0 0 1 .708-.707l1.596 1.596V3.11a.5.5 0 0 1 .5-.5ZM3.232 8.961a1.92 1.92 0 0 1 3.278 1.342c.022.375.047 1.574-.778 2.692v.001a4.105 4.105 0 0 1-1.514 1.242.5.5 0 1 1-.436-.9 3.106 3.106 0 0 0 1.146-.937c.055-.075.105-.15.15-.226A1.922 1.922 0 0 1 2.67 10.32c0-.509.202-.997.562-1.357Zm2.278 1.35a.92.92 0 1 1-1.84.013.92.92 0 0 1 1.84-.012Z" clip-rule="evenodd"/>
</svg>
